icons/dylib.svg

<!--
  - The MIT License (MIT)
  -
  - Copyright (c) 2015-2024 Elior "Mallowigi" Boukhobza
  -
  - Permission is hereby granted, free of charge, to any person obtaining a copy
  - of this software and associated documentation files (the "Software"), to deal
  - in the Software without restriction, including without limitation the rights
  - to use, copy, modify, merge, publish, distribute, sublicense, and/or sell
  - copies of the Software, and to permit persons to whom the Software is
  - furnished to do so, subject to the following conditions:
  -
  - The above copyright notice and this permission notice shall be included in all
  - copies or substantial portions of the Software.
  -
  - THE SOFTWARE IS PROVIDED "AS IS", WITHOUT WARRANTY OF ANY KIND, EXPRESS OR
  - IMPLIED, INCLUDING BUT NOT LIMITED TO THE WARRANTIES OF MERCHANTABILITY,
  - FITNESS FOR A PARTICULAR PURPOSE AND NONINFRINGEMENT. IN NO EVENT SHALL THE
  - AUTHORS OR COPYRIGHT HOLDERS BE LIABLE FOR ANY CLAIM, DAMAGES OR OTHER
  - LIABILITY, WHETHER IN AN ACTION OF CONTRACT, TORT OR OTHERWISE, ARISING FROM,
  - OUT OF OR IN CONNECTION WITH THE SOFTWARE OR THE USE OR OTHER DEALINGS IN THE
  - SOFTWARE.
  -
  -->

<svg version="1.1" xmlns="http://www.w3.org/2000/svg" x="0px" y="0px" width="16px" height="16px"
     viewBox="0 0 512 512">
  <path fill="#497CE3" data-iconColor="Dylib"
        d="M502.3232117,96.9997559l-23.34375,234.3022156L251.5939026,512L25.0729313,333.8957214L0,100.4580917L252.4584808,230.111084L502.3232117,96.9997559z M190.2084503,73.9845505c0-21.2984428-59.2934418-34.6822357-106.4720383-24.0330162s-47.1785736,37.4168129,0.0000153,48.0660286S190.2084503,95.2829895,190.2084503,73.9845505z M453.4569397,74.7453842c0-23.632515-59.293457-38.4830322-106.4720459-26.6667709s-47.1785583,41.5172882,0.0000305,53.3335419S453.4569397,98.3778992,453.4569397,74.7453842z M330.9627075,140.5594788c0-26.8433838-66.6078186-43.711586-119.606308-30.2898941s-52.9984589,47.1581039,0.0000153,60.5797806C264.3549194,184.2710571,330.9627075,167.4028625,330.9627075,140.5594788z M317.9027405,26.9332638c0-20.656374-54.9568787-33.6367035-98.6849365-23.3085136s-43.7280426,36.2888412,0.0000153,46.6170273S317.9027405,47.5896378,317.9027405,26.9332638z"/>
</svg>

<svg xmlns="http://www.w3.org/2000/svg" viewBox="0 0 512 512"><path fill="#497ce3" d="M502.323 97 478.98 331.302 251.594 512 25.073 333.896 0 100.458l252.458 129.653zM190.208 73.985c0-21.299-59.293-34.683-106.472-24.033s-47.178 37.416 0 48.066 106.472-2.735 106.472-24.033m263.249.76c0-23.632-59.294-38.483-106.472-26.666s-47.179 41.517 0 53.333 106.472-3.034 106.472-26.667M330.963 140.56c0-26.843-66.608-43.711-119.607-30.29s-52.998 47.159 0 60.58c52.999 13.422 119.607-3.446 119.607-30.29m-13.06-113.626c0-20.656-54.957-33.636-98.685-23.308s-43.728 36.289 0 46.617 98.685-2.652 98.685-23.309" data-iconColor="Dylib"/></svg>
